X:3
T:Hyp Doctor. TWC.003
M:9/8
L:1/8
Q:3/8=120
C:'Irish'
B:T.Wilson,Companion to the Ballroom,1816
Z:Village Music Project 2015 Chris Partington
K:Em
"^Allegretto"GEE E2e BGE|GEE E2d AFD|GEE E2F GAB|cBA G2A BGE:|!
|:gfg e2d efe|gfg A2B cBA|BGE E2F GAB|cBA G2A BGE:|

